packages/katcn/src/icons/svg/fix-solid.svg

<svg width="24" height="25" viewBox="0 0 24 25" fill="none" xmlns="http://www.w3.org/2000/svg">
<path d="M6.57793 23.976C5.7666 23.976 5.05668 23.6743 4.54959 23.1715L1.81134 20.4561C1.30425 19.9533 1 19.1487 1 18.4447C1 17.7407 1.30425 16.9362 1.81134 16.4333L4.95526 13.1146C4.34676 10.4998 4.95526 7.78441 6.47651 5.67247C9.01194 2.35369 13.2714 1.14686 17.1253 2.55483C17.4295 2.6554 17.7338 2.95711 17.7338 3.25881C17.7338 3.56052 17.7338 3.96279 17.4295 4.16393L14.387 7.181C13.88 7.68385 13.5757 8.38783 13.5757 9.09181C13.5757 9.69522 13.8799 10.2986 14.2856 10.7009C14.6913 11.1032 15.2998 11.3043 15.9083 11.3043C16.5168 11.3043 17.1253 11.1032 17.531 10.6003L20.7763 7.38214C20.9791 7.181 21.3848 7.08043 21.6891 7.08043C21.9933 7.181 22.2976 7.38214 22.399 7.68385C23.7174 11.0026 22.8046 14.8242 20.2692 17.3385C18.038 19.551 14.7927 20.4561 11.6488 19.7521L8.60627 23.0709C8.09919 23.6743 7.38927 23.976 6.57793 23.976Z" fill="black"/>
</svg>

<svg xmlns="http://www.w3.org/2000/svg" fill="none" viewBox="0 0 24 25"><path fill="#000" d="M6.578 23.976c-.811 0-1.521-.302-2.028-.804l-2.74-2.716C1.304 19.953 1 19.15 1 18.445s.304-1.509.811-2.012l3.144-3.318c-.608-2.615 0-5.33 1.522-7.443 2.535-3.318 6.794-4.525 10.648-3.117.305.1.609.402.609.704s0 .704-.305.905L14.388 7.18a2.74 2.74 0 0 0-.811 1.91c0 .604.304 1.208.71 1.61s1.014.603 1.622.603 1.217-.2 1.623-.704l3.245-3.218c.203-.201.609-.302.913-.302.304.101.609.302.71.604 1.318 3.319.406 7.14-2.13 9.654-2.231 2.213-5.476 3.118-8.62 2.414L8.607 23.07c-.507.603-1.217.905-2.028.905"/></svg>
